src/images/svg/package-vector-top.svg

<svg width="641" height="199" viewBox="0 0 641 199" fill="none" xmlns="http://www.w3.org/2000/svg">
<path d="M641 99.8353V23.9466C641 17.5955 636.776 11.5046 629.257 7.01378C621.737 2.52293 611.539 0 600.905 0H40.0945C29.4607 0 19.2626 2.52293 11.7434 7.01378C4.22422 11.5046 1.67746e-09 17.5955 1.67754e-09 23.9466V100.345C-7.0973e-05 104.979 2.25203 109.513 6.48297 113.398C10.7139 117.283 16.7418 120.35 23.835 122.228L305.974 196.929C311.107 198.291 316.66 198.994 322.277 198.994C327.893 198.994 333.446 198.291 338.579 196.929L616.611 122.356C623.879 120.406 630.048 117.243 634.375 113.247C638.703 109.252 641.003 104.594 641 99.8353Z" fill="white"/>
</svg>

<svg width="641" height="199" fill="none" xmlns="http://www.w3.org/2000/svg"><path d="M641 99.835V23.947c0-6.351-4.224-12.442-11.743-16.933C621.737 2.523 611.539 0 600.905 0H40.095C29.46 0 19.263 2.523 11.743 7.014 4.224 11.504 0 17.596 0 23.947v76.398c0 4.634 2.252 9.168 6.483 13.053 4.23 3.885 10.259 6.952 17.352 8.83l282.139 74.701c5.133 1.362 10.686 2.065 16.303 2.065 5.616 0 11.169-.703 16.302-2.065l278.032-74.573c7.268-1.95 13.437-5.113 17.764-9.109 4.328-3.995 6.628-8.653 6.625-13.412z" fill="#fff"/></svg>
